proprietary/assets/icons/vrijetijd-en-school/rugzak.svg

<svg height="64" viewBox="0 0 64 64" width="64" xmlns="http://www.w3.org/2000/svg"><path d="m0 0h64v64h-64z" fill="none"/><path d="m57.8368 45.6294c-1.8287-16.6679-3.842-41.2126-17.6642-37.0798-9.1738 2.743-13.5572 14.7581-14.1726 24.4504-.5624.0376-.9584-.726-.9584-1.5083 0-20.3667 13.0284-24.4917 13.0284-24.4917s-2.0162-1.3205-5.5953-1.0686c-1.3902-1.9312-3.6816-4.5521-6.8436-3.7352-1.5879.4102-2.6995 1.7157-3.2055 3.4171-.5582 1.8788-.2843 4.1514.6304 5.9856-.5218.7102-1.0118 1.4651-1.4527 2.2851-1.6898-.6724-5.1169-1.6211-8.2318.0982-3.1843 1.758-4.9742 5.6719-5.3212 11.6326-.7408 12.7511 6.8858 23.134 9.8897 26.7003.1505 1.2687.3079 2.3965.4604 3.3356.3225 1.9858 1.7714 3.6075 3.723 4.1552 3.3812.9488 8.0896 1.76 10.1578 2.0952.6819.1105 1.3744.1403 2.0562.029 7.4454-1.2156 16.5083-7.3148 21.0227-10.6539 1.7795-1.3164 2.7168-3.4584 2.4767-5.6468zm-40.5372-.9198c-2.8122-4.5909-5.7891-11.3314-5.351-18.868.2583-4.4586 1.3982-7.3746 3.2949-8.433 1.6523-.9224 3.7015-.3682 4.7855.0484-2.8519 7.934-3.1812 18.6927-2.7294 27.2526zm7.9746-38.2509c.6858-2.311 2.7948-1.4587 4.0167.2498-1.1831.487-2.4479 1.2147-3.7812 2.2769-.0737.0587-.1388.1304-.2114.191-.232-.9276-.2626-1.9164-.0241-2.7177z"/></svg>

<?xml version="1.0" encoding="utf-8"?>
<!-- Generator: Adobe Illustrator 17.1.0, SVG Export Plug-In . SVG Version: 6.00 Build 0)  -->
<svg version="1.2" baseProfile="tiny" xmlns="http://www.w3.org/2000/svg" xmlns:xlink="http://www.w3.org/1999/xlink" x="0px"
	 y="0px" width="64px" height="64px" viewBox="0 0 64 64" xml:space="preserve">
<g id="_x36_4px_Box">
	<rect fill="none" width="64" height="64"/>
</g>
<g id="Label" display="none">
</g>
<g id="Production">
	<path d="M57.8368,45.6294c-1.8287-16.6679-3.842-41.2126-17.6642-37.0798C30.9988,11.2926,26.6154,23.3077,26,33
		c-0.5624,0.0376-0.9584-0.726-0.9584-1.5083C25.0416,11.125,38.07,7,38.07,7s-2.0162-1.3205-5.5953-1.0686
		c-1.3902-1.9312-3.6816-4.5521-6.8436-3.7352c-1.5879,0.4102-2.6995,1.7157-3.2055,3.4171
		c-0.5582,1.8788-0.2843,4.1514,0.6304,5.9856c-0.5218,0.7102-1.0118,1.4651-1.4527,2.2851
		c-1.6898-0.6724-5.1169-1.6211-8.2318,0.0982c-3.1843,1.758-4.9742,5.6719-5.3212,11.6326
		c-0.7408,12.7511,6.8858,23.134,9.8897,26.7003c0.1505,1.2687,0.3079,2.3965,0.4604,3.3356
		c0.3225,1.9858,1.7714,3.6075,3.723,4.1552c3.3812,0.9488,8.0896,1.76,10.1578,2.0952c0.6819,0.1105,1.3744,0.1403,2.0562,0.029
		c7.4454-1.2156,16.5083-7.3148,21.0227-10.6539C57.1396,49.9598,58.0769,47.8178,57.8368,45.6294z M17.2996,44.7096
		c-2.8122-4.5909-5.7891-11.3314-5.351-18.868c0.2583-4.4586,1.3982-7.3746,3.2949-8.433c1.6523-0.9224,3.7015-0.3682,4.7855,0.0484
		C17.1771,25.391,16.8478,36.1497,17.2996,44.7096z M25.2742,6.4587C25.96,4.1477,28.069,5,29.2909,6.7085
		c-1.1831,0.487-2.4479,1.2147-3.7812,2.2769c-0.0737,0.0587-0.1388,0.1304-0.2114,0.191
		C25.0663,8.2488,25.0357,7.26,25.2742,6.4587z"/>
</g>
</svg>
